X: 5
T:Cuckoo's Nest, Ilmington 1
M:2/2
L:1/8
A:Ilmington
P:A(AB)4A
K:G
P:A
|:BcBA G2g2|BcBA G2g2| BcBA GFGc|B2G2 G4:|
P:B
|:g2g2 g2ag|f2d2 d3e |=f2f2 f2gf|e2c2 c4 |
  BcBA G2g2|gedB c2d2| cBAG F2dc|B2G2 G4:|
